packages/sources/assets/src/assets/flag-lr.svg

<svg width="28" height="20" viewBox="0 0 28 20" fill="none" xmlns="http://www.w3.org/2000/svg">
<rect x="0.25" y="0.25" width="27.5" height="19.5" rx="1.75" fill="white" stroke="#F5F5F5" stroke-width="0.5"/>
<mask id="mask0_503_3532" style="mask-type:alpha" maskUnits="userSpaceOnUse" x="0" y="0" width="28" height="20">
<rect x="0.25" y="0.25" width="27.5" height="19.5" rx="1.75" fill="white" stroke="white" stroke-width="0.5"/>
</mask>
<g mask="url(#mask0_503_3532)">
<path fill-rule="evenodd" clip-rule="evenodd" d="M28 0H13.3333V2.66667H28V0ZM28 5.33333H13.3333V8H28V5.33333ZM13.3333 10.6667H28V13.3333H13.3333V10.6667ZM28 16H0V18.6667H28V16Z" fill="#E1244A"/>
<rect width="13.3333" height="13.3333" fill="#0C3F8E"/>
<path fill-rule="evenodd" clip-rule="evenodd" d="M6.66666 8.22666L4.31552 9.90272L5.18301 7.14872L2.86243 5.43059L5.74971 5.40459L6.66666 2.66666L7.5836 5.40459L10.4709 5.43059L8.1503 7.14872L9.0178 9.90272L6.66666 8.22666Z" fill="white"/>
</g>
</svg>

<svg width="28" height="20" fill="none" xmlns="http://www.w3.org/2000/svg"><rect x=".25" y=".25" width="27.5" height="19.5" rx="1.75" fill="#fff" stroke="#F5F5F5" stroke-width=".5"/><mask id="a" style="mask-type:alpha" maskUnits="userSpaceOnUse" x="0" y="0" width="28" height="20"><rect x=".25" y=".25" width="27.5" height="19.5" rx="1.75" fill="#fff" stroke="#fff" stroke-width=".5"/></mask><g mask="url(#a)"><path fill-rule="evenodd" clip-rule="evenodd" d="M28 0H13.333v2.667H28V0Zm0 5.333H13.333V8H28V5.333Zm-14.667 5.334H28v2.666H13.333v-2.666ZM28 16H0v2.667h28V16Z" fill="#E1244A"/><path fill="#0C3F8E" d="M0 0h13.333v13.333H0z"/><path fill-rule="evenodd" clip-rule="evenodd" d="M6.667 8.227 4.316 9.903l.867-2.754-2.32-1.718 2.887-.026.917-2.738.917 2.738 2.887.026-2.32 1.718.867 2.754-2.351-1.676Z" fill="#fff"/></g></svg>
